build/category/LightningSolid.svg

<svg xmlns="http://www.w3.org/2000/svg" fill="none" viewBox="0 0 24 24" focusable="false"><path d="M0 0H24V24H0z"/><path fill="#74767B" d="M13.9884 2.02729C13.38 1.92357 12.7589 2.11909 12.3195 2.55261L3.84763 10.9127C2.7341 12.0116 3.3028 13.9084 4.8372 14.2133L8.67867 14.9767C9.02764 15.0461 9.256 15.3831 9.19106 15.7329L8.44851 19.7328C8.25322 20.7847 8.95668 21.7929 10.0114 21.9727C10.6198 22.0764 11.2409 21.8809 11.6803 21.4474L20.1522 13.0873C21.2657 11.9885 20.697 10.0916 19.1626 9.78671L15.3211 9.02328C14.9722 8.95393 14.7438 8.61691 14.8088 8.26711L15.5513 4.26726C15.7466 3.21532 15.0431 2.20709 13.9884 2.02729Z"/></svg>

<svg xmlns="http://www.w3.org/2000/svg" fill="none" viewBox="0 0 24 24" focusable="false"><path fill="#74767B" d="M13.98 2.02c-.61-.1-1.23.09-1.67.53l-8.47 8.36c-1.11 1.1-.54 2.99.99 3.3l3.84.76c.35.07.58.41.52.76l-.75 4c-.19 1.05.51 2.06 1.57 2.24.6.1 1.23-.09 1.67-.53l8.47-8.36c1.11-1.1.54-2.99-.99-3.3l-3.84-.76a.66.66 0 0 1-.52-.76l.75-4c.19-1.05-.51-2.06-1.57-2.24"/></svg>
